svg/emoji_u1f613.svg

<svg xmlns="http://www.w3.org/2000/svg" viewBox="0 0 128 128" width="512px" height="512px"><path d="M234.74 9.56c-62.41 0-63.88 69.96-63.88 83.8 0 13.86 28.59 25.08 63.88 25.08 35.28 0 63.88-11.22 63.88-25.08 0-13.84-1.48-83.8-63.88-83.8z" fill="#fcc21b"/><path d="M201.93 36.07c2.31-4.6 7.31-6.8 11.15-4.92 3.83 1.89 5.09 7.14 2.78 11.74-2.3 4.6-7.29 6.79-11.14 4.9-3.83-1.88-5.09-7.14-2.79-11.72zm53.83 12.11c-1.1 5.14-5.49 8.6-9.8 7.7-4.33-.9-6.94-5.8-5.85-10.96 1.1-5.16 5.49-8.61 9.81-7.7 4.32.89 6.94 5.79 5.84 10.96zM240.58 77.19c-.18 0-.36-.02-.54-.05L201 70.07a3.012 3.012 0 0 1-2.42-3.49 3.002 3.002 0 0 1 3.49-2.42l39.04 7.08c1.63.3 2.71 1.86 2.42 3.49a2.997 2.997 0 0 1-2.95 2.46z" fill="#2f2f2f"/><path d="M64 9.56C1.59 9.56.12 79.52.12 93.36c0 13.86 28.59 25.08 63.88 25.08 35.28 0 63.88-11.22 63.88-25.08 0-13.84-1.48-83.8-63.88-83.8z" fill="#fcc21b"/><path d="M42.21 62.3c-4.49.04-8.17-4.27-8.22-9.62-.05-5.37 3.55-9.75 8.04-9.79 4.48-.04 8.17 4.27 8.22 9.64.05 5.35-3.55 9.72-8.04 9.77zm44.11 0c4.48-.01 8.11-4.36 8.1-9.71-.01-5.37-3.66-9.7-8.14-9.69-4.49.01-8.13 4.36-8.12 9.73.02 5.35 3.67 9.68 8.16 9.67zM89.69 84.75H38.31c-1.66 0-3-1.34-3-3s1.34-3 3-3H89.7c1.66 0 3 1.34 3 3s-1.35 3-3.01 3z" fill="#2f2f2f"/><path d="M117.56 66.97c-1.23 5.24-4.71 8.47-7.61 9.33-3.25.96-6.18.44-8.25-1.46-2.62-2.4-3.49-6.59-2.46-11.81 1.88-9.38.85-25.96.85-26.12-.04-.64.29-1.22.87-1.48a1.51 1.51 0 0 1 1.7.27c15.89 14.83 16.16 25.96 14.9 31.27z" fill="#fff"/></svg>

<?xml version="1.0" encoding="utf-8"?>
<!-- Generator: Adobe Illustrator 19.2.1, SVG Export Plug-In . SVG Version: 6.00 Build 0)  -->
<svg version="1.1" id="图层_1" xmlns="http://www.w3.org/2000/svg" xmlns:xlink="http://www.w3.org/1999/xlink" x="0px" y="0px"
	 viewBox="0 0 128 128" style="enable-background:new 0 0 128 128;" xml:space="preserve">
<g>
	<g>
		<g>
			<g>
				<path style="fill:#FCC21B;" d="M234.74,9.56c-62.41,0-63.88,69.96-63.88,83.8c0,13.86,28.59,25.08,63.88,25.08
					c35.28,0,63.88-11.22,63.88-25.08C298.62,79.52,297.14,9.56,234.74,9.56z"/>
			</g>
		</g>
	</g>
	<g>
		<path style="fill:#2F2F2F;" d="M201.93,36.07c2.31-4.6,7.31-6.8,11.15-4.92c3.83,1.89,5.09,7.14,2.78,11.74
			c-2.3,4.6-7.29,6.79-11.14,4.9C200.89,45.91,199.63,40.65,201.93,36.07z"/>
		<path style="fill:#2F2F2F;" d="M255.76,48.18c-1.1,5.14-5.49,8.6-9.8,7.7c-4.33-0.9-6.94-5.8-5.85-10.96
			c1.1-5.16,5.49-8.61,9.81-7.7C254.24,38.11,256.86,43.01,255.76,48.18z"/>
	</g>
</g>
<g>
	<path style="fill:#2F2F2F;" d="M240.58,77.19c-0.18,0-0.36-0.02-0.54-0.05L201,70.07c-1.63-0.3-2.71-1.86-2.42-3.49
		c0.29-1.63,1.85-2.71,3.49-2.42l39.04,7.08c1.63,0.3,2.71,1.86,2.42,3.49C243.27,76.18,242,77.19,240.58,77.19z"/>
</g>
<g>
	<g>
		<g>
			<path style="fill:#FCC21B;" d="M64,9.56c-62.41,0-63.88,69.96-63.88,83.8c0,13.86,28.59,25.08,63.88,25.08
				c35.28,0,63.88-11.22,63.88-25.08C127.88,79.52,126.4,9.56,64,9.56z"/>
		</g>
	</g>
</g>
<g>
	<path style="fill:#2F2F2F;" d="M42.21,62.3c-4.49,0.04-8.17-4.27-8.22-9.62c-0.05-5.37,3.55-9.75,8.04-9.79
		c4.48-0.04,8.17,4.27,8.22,9.64C50.3,57.88,46.7,62.25,42.21,62.3z"/>
	<path style="fill:#2F2F2F;" d="M86.32,62.3c4.48-0.01,8.11-4.36,8.1-9.71c-0.01-5.37-3.66-9.7-8.14-9.69
		c-4.49,0.01-8.13,4.36-8.12,9.73C78.18,57.98,81.83,62.31,86.32,62.3z"/>
</g>
<g>
	<path style="fill:#2F2F2F;" d="M89.69,84.75H38.31c-1.66,0-3-1.34-3-3s1.34-3,3-3h51.39c1.66,0,3,1.34,3,3S91.35,84.75,89.69,84.75
		z"/>
</g>
<g>
	<path style="fill:#FFFFFF;" d="M117.56,66.97c-1.23,5.24-4.71,8.47-7.61,9.33c-3.25,0.96-6.18,0.44-8.25-1.46
		c-2.62-2.4-3.49-6.59-2.46-11.81c1.88-9.38,0.85-25.96,0.85-26.12c-0.04-0.64,0.29-1.22,0.87-1.48c0.57-0.28,1.24-0.16,1.7,0.27
		C118.55,50.53,118.82,61.66,117.56,66.97z"/>
</g>
</svg>
